assets/Taco/Flat/taco_flat.svg

<svg width="32" height="32" viewBox="0 0 32 32" fill="none" xmlns="http://www.w3.org/2000/svg">
<path d="M13.8356 13.79C7.81556 13.79 2.93555 18.67 2.93555 24.69V27.48C2.93555 28.87 4.06555 30 5.45555 30H22.2256C23.6156 30 24.7456 28.87 24.7456 27.48V24.7C24.7356 18.67 19.8556 13.79 13.8356 13.79Z" fill="#FFB02E"/>
<path d="M12.4754 16.89C8.24545 16.89 4.82544 20.32 4.82544 24.54V26.5C4.82544 27.48 5.61544 28.27 6.59544 28.27H18.3654C19.3454 28.27 20.1355 27.48 20.1355 26.5V24.54C20.1255 20.32 16.6954 16.89 12.4754 16.89Z" fill="#6D4534"/>
<path d="M24.8254 14.58C24.7954 14.58 24.7554 14.58 24.7254 14.57C23.0054 14.48 21.4454 13.62 20.3654 12.27C19.3454 10.99 17.7654 10.16 16.0054 10.16C14.2454 10.16 12.6654 10.98 11.6454 12.27C10.5754 13.62 9.00544 14.48 7.28544 14.57C7.25544 14.57 7.21544 14.57 7.18544 14.58C4.43544 14.77 2.21544 17 2.01544 19.75C1.77544 23.04 4.36544 25.79 7.58544 25.79C10.5254 25.79 12.9354 23.5 13.1554 20.6C13.9954 21.1 14.9654 21.39 16.0054 21.39C17.0454 21.39 18.0254 21.1 18.8554 20.6C19.0754 23.5 21.4854 25.79 24.4254 25.79C27.6554 25.79 30.2354 23.04 29.9954 19.75C29.7954 16.99 27.5654 14.77 24.8254 14.58Z" fill="#44911B"/>
<path d="M26.4754 15.96C26.4754 18.147 24.7025 19.92 22.5154 19.92C20.3284 19.92 18.5554 18.147 18.5554 15.96C18.5554 13.773 20.3284 12 22.5154 12C24.7025 12 26.4754 13.773 26.4754 15.96Z" fill="#F8312F"/>
<path d="M13.0255 20.2C13.0255 22.387 11.2525 24.16 9.06548 24.16C6.87843 24.16 5.10547 22.387 5.10547 20.2C5.10547 18.0129 6.87843 16.24 9.06548 16.24C11.2525 16.24 13.0255 18.0129 13.0255 20.2Z" fill="#F8312F"/>
<path d="M18.0856 13.79C12.0656 13.79 7.18555 18.67 7.18555 24.69V27.48C7.18555 28.87 8.31555 30 9.70555 30H26.4756C27.8656 30 28.9956 28.87 28.9956 27.48V24.7C28.9856 18.67 24.1056 13.79 18.0856 13.79Z" fill="#F9C23C"/>
</svg>

<svg xmlns="http://www.w3.org/2000/svg" width="32" height="32" fill="none"><path fill="#FFB02E" d="M13.836 13.79c-6.02 0-10.9 4.88-10.9 10.9v2.79c0 1.39 1.13 2.52 2.52 2.52h16.77c1.39 0 2.52-1.13 2.52-2.52V24.7c-.01-6.03-4.89-10.91-10.91-10.91Z"/><path fill="#6D4534" d="M12.475 16.89a7.65 7.65 0 0 0-7.65 7.65v1.96c0 .98.79 1.77 1.77 1.77h11.77c.98 0 1.77-.79 1.77-1.77v-1.96c-.01-4.22-3.44-7.65-7.66-7.65Z"/><path fill="#44911B" d="M24.825 14.58c-.03 0-.07 0-.1-.01-1.72-.09-3.28-.95-4.36-2.3a5.579 5.579 0 0 0-4.36-2.11c-1.76 0-3.34.82-4.36 2.11-1.07 1.35-2.64 2.21-4.36 2.3-.03 0-.07 0-.1.01-2.75.19-4.97 2.42-5.17 5.17-.24 3.29 2.35 6.04 5.57 6.04 2.94 0 5.35-2.29 5.57-5.19.84.5 1.81.79 2.85.79s2.02-.29 2.85-.79c.22 2.9 2.63 5.19 5.57 5.19 3.23 0 5.81-2.75 5.57-6.04-.2-2.76-2.43-4.98-5.17-5.17Z"/><path fill="#F8312F" d="M26.475 15.96a3.96 3.96 0 1 1-7.92 0 3.96 3.96 0 0 1 7.92 0ZM13.025 20.2a3.96 3.96 0 1 1-7.92 0 3.96 3.96 0 0 1 7.92 0Z"/><path fill="#F9C23C" d="M18.086 13.79c-6.02 0-10.9 4.88-10.9 10.9v2.79c0 1.39 1.13 2.52 2.52 2.52h16.77c1.39 0 2.52-1.13 2.52-2.52V24.7c-.01-6.03-4.89-10.91-10.91-10.91Z"/></svg>
